!!!COM: Martinů, Bohuslav (Jan)
!!!OTL: The Parables for Orchestra
!!!OMV: I: Andante pastorale
!!!example: 491
!!!work: Mau-112
**kern	**dynam	**kern	**dynam	**kern	**dynam	**kern	**dynam	**kern	**dynam	**kern	**dynam	**kern	**dynam	**kern	**dynam	**kern	**dynam	**kern	**dynam	**kern	**dynam	**kern	**dynam	**kern	**dynam	**kern	**dynam	**kern	**dynam	**kern	**dynam	**kern	**dynam	**kern	**kern	**dynam	**kern	**kern	**dynam
*part21	*part21	*part20	*part20	*part19	*part19	*part18	*part18	*part17	*part17	*part16	*part16	*part15	*part15	*part14	*part14	*part13	*part13	*part12	*part12	*part11	*part11	*part10	*part10	*part9	*part9	*part8	*part8	*part7	*part7	*part6	*part6	*part5	*part5	*part4	*part3	*part3	*part2	*part1	*part1
*staff21	*	*staff20	*	*staff19	*	*staff18	*	*staff17	*	*staff16	*	*staff15	*	*staff14	*	*staff13	*	*staff12	*	*staff11	*	*staff10	*	*staff9	*	*staff8	*	*staff7	*	*staff6	*	*staff5	*	*staff4	*staff3	*	*staff2	*staff1	*
*I"Contrabass	*	*I"Violoncello	*	*I"Viola	*	*I"Violin II	*	*I"Violin I	*	*I"Tenor Dr.	*	*I"Gran cassa Piatti	*	*I"Trombone III.	*	*I"Trombone I. II.	*	*I"Trumpet in C III.	*	*I"Trumpet in C I. II.	*	*I"Horn in F III. IV.	*	*I"Horn in F I. II.	*	*I"Contrabassoon	*	*I"Bassoon III.	*	*I"Bassoon I. II.	*	*I"Clarinet in Bb III.	*	*I"Clarinet in Bb I. II.	*I"Oboe III.	*	*I"Oboe I. II.	*I"Flute I. II. III.	*
*I'Cb.	*	*I'Vc.	*	*I'Vla.	*	*I'Vln. II	*	*I'Vln. I	*	*I'Perc.	*	*I'Timp.	*	*I'Tbn.	*	*I'Tbn.	*	*I'C Tpt. III.	*	*I'C Tpt.	*	*I'Hn.	*	*I'Hn.	*	*I'Cbsn.	*	*I'Bsn.	*	*I'Bsn.	*	*I'Cl.	*	*I'Cl.	*I'Ob.	*	*I'Ob.	*I'Fl.	*
!!pagebreak:original
*clefF4	*	*clefF4	*	*clefG2	*	*clefG2	*	*clefG2	*	*clefpercussion2	*	*clefG2	*	*clefF4	*	*clefF4	*	*clefG2	*	*clefG2	*	*clefG2	*	*clefG2	*	*clefF4	*	*clefF4	*	*clefF4	*	*clefG2	*	*clefG2	*clefG2	*	*clefG2	*clefG2	*
*ITrd0c0	*	*	*	*	*	*	*	*	*	*	*	*	*	*	*	*	*	*	*	*	*	*ITrd4c7	*	*ITrd4c7	*	*ITrd0c0	*	*	*	*	*	*ITrd1c2	*	*ITrd1c2	*	*	*	*	*
*k[]	*	*k[]	*	*k[]	*	*k[]	*	*k[]	*	*k[]	*	*k[]	*	*k[]	*	*k[]	*	*k[]	*	*k[]	*	*k[]	*	*k[]	*	*k[]	*	*k[]	*	*k[]	*	*k[]	*	*k[]	*k[]	*	*k[]	*k[]	*
*C:	*	*C:	*	*C:	*	*C:	*	*C:	*	*C:	*	*C:	*	*C:	*	*C:	*	*C:	*	*C:	*	*C:	*	*C:	*	*C:	*	*C:	*	*C:	*	*C:	*	*C:	*C:	*	*C:	*C:	*
*M2/4	*	*M2/4	*	*M2/4	*	*M2/4	*	*M2/4	*	*M2/4	*	*M2/4	*	*M2/4	*	*M2/4	*	*M2/4	*	*M2/4	*	*M2/4	*	*M2/4	*	*M2/4	*	*M2/4	*	*M2/4	*	*M2/4	*	*M2/4	*M2/4	*	*M2/4	*M2/4	*
=78	=	=	=	=	=	=	=	=	=	=	=	=	=	=	=	=	=	=	=	=	=	=	=	=	=	=	=	=	=	=	=	=	=	=	=	=	=	=	=
!	!	!	!	!	!	!	!	!	!	!	!	!	!	!	!	!	!	!	!	!	!	!	!	!	!	!	!	!	!	!	!	!	!	!	!	!	!	!LO:TX:B:t=molto accelerando	!
!	!	!	!	!	!	!	!	!	!	!LO:TX:B:t=molto accelerando	!	!	!	!	!	!	!	!	!	!	!	!	!	!	!	!	!	!	!	!	!	!	!	!	!	!	!LO:TX:t=a2	!LO:TX:t=a2	!
8c#X	.	4G#X 4c#X	.	4cc#X 4ee	.	(>8aa-XL	.	(>8ddd-XL	.	2r	.	2r	.	2r	.	2r	.	2r	.	2r	.	8e	.	8e	.	2r	.	2r	.	8G#X 8c#X	.	2r	.	8cc#X 8ee	2r	.	(>8aa-XL	(>8ddd-XL	.
8r	.	.	.	.	.	16ggL	.	16cccL	.	.	.	.	.	.	.	.	.	.	.	.	.	8r	.	8r	.	.	.	.	.	8r	.	.	.	8r	.	.	16ggL	16cccL	.
.	.	.	.	.	.	[16aa-JJ	.	[16ddd-JJ	.	.	.	.	.	.	.	.	.	.	.	.	.	.	.	.	.	.	.	.	.	.	.	.	.	.	.	.	[16aa-JJ	[16ddd-JJ	.
(>4c#X	.	(>4Gn 4cn	.	(>4ccn 4ee	.	8aa-L])	.	8ddd-L])	.	.	.	.	.	.	.	.	.	.	.	.	.	4r	.	4r	.	.	.	.	.	(>4Gn 4cn	.	.	.	(>4cc 4ee	.	.	8aa-L]	8ddd-L]	.
.	.	.	.	.	.	[8ggJ	.	8cccJ	.	.	.	.	.	.	.	.	.	.	.	.	.	.	.	.	.	.	.	.	.	.	.	.	.	.	.	.	8ggJ)	8cccJ)	.
=79	=79	=79	=79	=79	=79	=79	=79	=79	=79	=79	=79	=79	=79	=79	=79	=79	=79	=79	=79	=79	=79	=79	=79	=79	=79	=79	=79	=79	=79	=79	=79	=79	=79	=79	=79	=79	=79	=79	=79
4d-X)	.	4A-X 4d-X)	.	4dd-X 4ff)	.	12ggL]	.	12cccL	.	2r	.	4r	.	4r	.	4r	.	2r	.	4r	.	4r	.	4r	.	2r	.	2r	.	4A-X 4d-X)	.	2r	.	4dd-X 4ff)	2r	.	12r	12r	.
.	.	.	.	.	.	(>12bb-X	.	(>12eee-X	.	.	.	.	.	.	.	.	.	.	.	.	.	.	.	.	.	.	.	.	.	.	.	.	.	.	.	.	(>12bb-XL	(>12eee-XL	.
.	.	.	.	.	.	[12aanJ	.	[12cccJ	.	.	.	.	.	.	.	.	.	.	.	.	.	.	.	.	.	.	.	.	.	.	.	.	.	.	.	.	[12aanJ	[12cccJ	.
8r	.	[4B-X [4e-X	.	[4ee-X [4gg-X	.	16aaLL])	.	16cccLL])	.	.	.	8r	.	8r	.	8r	.	.	.	8r	.	8r	.	8r	.	.	.	.	.	[4B-X [4e-X	.	.	.	[4ee- [4gg-X	.	.	16aaLL])	16cccLL])	.
.	.	.	.	.	.	(>16bb-	.	(>16eee-X	.	.	.	.	.	.	.	.	.	.	.	.	.	.	.	.	.	.	.	.	.	.	.	.	.	.	.	.	(>16bb-	(>16eee-	.
!	!	!	!	!	!	!	!	!	!	!	!	!	!	!	!	!	!	!	!	!LO:TX:t=a2	!	!	!	!	!	!	!	!	!	!	!	!	!	!	!	!	!	!	!
*	*	*	*	*	*	*	*	*	*	*	*	*^	*	*	*	*	*	*	*	*	*	*	*	*	*	*	*	*	*	*	*	*	*	*	*	*	*	*	*
8E-X	.	.	.	.	.	16aa	.	16dddn	.	.	.	8a'	8a	mf	8E-X'	mf	8G-X' 8B-X	mf	.	.	16e-XLL	mf	8E-X' 8e-X	f	8E-X' 8e-X	f	.	.	.	.	.	.	.	.	.	.	.	16aa	16dddn	.
.	.	.	.	.	.	[16bb-JJ	.	[16eee-JJ	.	.	.	.	.	.	.	.	.	.	.	.	16e-JJ	.	.	.	.	.	.	.	.	.	.	.	.	.	.	.	.	[16bb-JJ	[16eee-JJ	.
*	*	*	*	*	*	*	*	*	*	*	*	*v	*v	*	*	*	*	*	*	*	*	*	*	*	*	*	*	*	*	*	*	*	*	*	*	*	*	*	*	*
=80	=80	=80	=80	=80	=80	=80	=80	=80	=80	=80	=80	=80	=80	=80	=80	=80	=80	=80	=80	=80	=80	=80	=80	=80	=80	=80	=80	=80	=80	=80	=80	=80	=80	=80	=80	=80	=80	=80	=80
(>4D	.	16B-LL] 16e-]	.	16ee-LL] 16gg-]	.	16bb-KL])	.	16eee-KL])	.	2r	.	4r	.	4D	.	4F 4A	.	2r	.	4r	.	4r	.	4r	.	2r	.	2r	.	8B-] 8e-]	.	2r	.	16ee-LL] 16gg-]	2r	.	16bb-KL]	16eee-KL]	.
.	.	(>16An 16dn	.	(>16ddn 16ff	.	[8.aaJ	.	[8.dddJ	.	.	.	.	.	.	.	.	.	.	.	.	.	.	.	.	.	.	.	.	.	.	.	.	.	(>16dd 16ff	.	.	8.aaJ)	8.dddJ)	.
.	.	16B-X 16e-X	.	16ee-X 16gg-X	.	.	.	.	.	.	.	.	.	.	.	.	.	.	.	.	.	.	.	.	.	.	.	.	.	8r	.	.	.	16ee- 16gg-X	.	.	.	.	.
.	.	16AJJ 16d)	.	16ddJJ 16ff)	.	.	.	.	.	.	.	.	.	.	.	.	.	.	.	.	.	.	.	.	.	.	.	.	.	.	.	.	.	16ddJJ 16ff	.	.	.	.	.
[4E-X	.	[4B- [4e-	.	[4ee- [4gg-	.	16aaLL]	.	16dddLL]	.	.	.	8r	.	[4E-X	.	[4G-X [4B-X	.	.	.	8r	.	8r	.	8r	.	.	.	.	.	[4B-X [4e-X	.	.	.	[4ee- [4gg-	.	.	16r	16r	.
.	.	.	.	.	.	(>16bb-X	.	(>16eee-X	.	.	.	.	.	.	.	.	.	.	.	.	.	.	.	.	.	.	.	.	.	.	.	.	.	.	.	.	(>16bb-XLL	(>16eee-XLL	.
*	*	*	*	*	*	*	*	*	*	*	*	*^	*	*	*	*	*	*	*	*	*	*	*	*	*	*	*	*	*	*	*	*	*	*	*	*	*	*	*
.	.	.	.	.	.	16aa	.	16ddd	.	.	.	8a'	8a	.	.	.	.	.	.	.	16e-XLL	.	8E-X' 8e-X	.	8E-X' 8e-X	.	.	.	.	.	.	.	.	.	.	.	.	16aa	16ddd	.
.	.	.	.	.	.	[16bb-JJ	.	[16eee-JJ	.	.	.	.	.	.	.	.	.	.	.	.	16e-JJ	.	.	.	.	.	.	.	.	.	.	.	.	.	.	.	.	[16bb-JJ	[16eee-JJ	.
*	*	*	*	*	*	*	*	*	*	*	*	*v	*v	*	*	*	*	*	*	*	*	*	*	*	*	*	*	*	*	*	*	*	*	*	*	*	*	*	*	*
=81	=81	=81	=81	=81	=81	=81	=81	=81	=81	=81	=81	=81	=81	=81	=81	=81	=81	=81	=81	=81	=81	=81	=81	=81	=81	=81	=81	=81	=81	=81	=81	=81	=81	=81	=81	=81	=81	=81	=81
8E-])	.	16B-LL] 16e-]	.	16ee-LL] 16gg-]	.	16bb-LL])	.	16eee-LL])	.	2r	.	2r	.	8E-]	<	8G-] 8B-]	<	2r	.	2r	.	2r	.	2r	.	2r	.	2r	.	8B-] 8e-]	.	2r	.	16ee-LL] 16gg-])	2r	.	16bb-LL])	16eee-LL])	.
.	.	(>16A 16d	.	(>16dd 16ff	.	(>16aa	.	(>16ddd	.	.	.	.	.	.	.	.	.	.	.	.	.	.	.	.	.	.	.	.	.	.	.	.	.	(>16dd 16ff	.	.	(>16aa	(>16ddd	.
8r	.	16B-X 16e-X	.	16ee-X 16gg-X	.	16bb-X	.	16eee-X	.	.	.	.	.	4D	.	4F 4A	.	.	.	.	.	.	.	.	.	.	.	.	.	8r	.	.	.	16ee- 16gg-X	.	.	16bb-X	16eee-X	.
.	.	16AJJ 16d)	.	16ddJJ 16ff)	.	16aaJJ)	.	16dddJJ)	.	.	.	.	.	.	.	.	.	.	.	.	.	.	.	.	.	.	.	.	.	.	.	.	.	16ddJJ 16ff	.	.	16aaJJ	16dddJJ	.
4r	.	4B- 4e-	.	4ee- 4gg-	.	(>24bb-LL	.	(>24eee-LL	.	.	.	.	.	.	.	.	.	.	.	.	.	.	.	.	.	.	.	.	.	4r	.	.	.	8ee- 8gg-)	.	.	8bb-)	8eee-)	.
.	.	.	.	.	.	24aa	.	24ddd	.	.	.	.	.	.	.	.	.	.	.	.	.	.	.	.	.	.	.	.	.	.	.	.	.	.	.	.	.	.	.
.	.	.	.	.	.	24bb-	.	24eee-	.	.	.	.	.	.	.	.	.	.	.	.	.	.	.	.	.	.	.	.	.	.	.	.	.	.	.	.	.	.	.
.	.	.	.	.	.	24aa	.	24ddd	.	.	.	.	.	8E-X	[	8G-X 8B-X	[	.	.	.	.	.	.	.	.	.	.	.	.	.	.	.	.	8r	.	.	8r	8r	.
.	.	.	.	.	.	24bb-	.	24eee-	.	.	.	.	.	.	.	.	.	.	.	.	.	.	.	.	.	.	.	.	.	.	.	.	.	.	.	.	.	.	.
.	.	.	.	.	.	24cccJJ)	.	24eeenJJ)	.	.	.	.	.	.	.	.	.	.	.	.	.	.	.	.	.	.	.	.	.	.	.	.	.	.	.	.	.	.	.
=82	=82	=82	=82	=82	=82	=82	=82	=82	=82	=82	=82	=82	=82	=82	=82	=82	=82	=82	=82	=82	=82	=82	=82	=82	=82	=82	=82	=82	=82	=82	=82	=82	=82	=82	=82	=82	=82	=82	=82
.	.	.	.	.	.	.	.	.	.	32qqx/LLL	.	.	.	.	.	.	.	.	.	.	.	.	.	.	.	.	.	.	.	.	.	.	.	.	.	.	.	.	.
.	.	.	.	.	.	.	.	.	.	32qqx/	.	.	.	.	.	.	.	.	.	.	.	.	.	.	.	.	.	.	.	.	.	.	.	.	.	.	.	.	.
!	!	!	!	!	!	!	!	!	!	!LO:TX:t=[quarter]=120	!	!	!	!	!	!	!	!	!	!	!	!	!	!	!	!	!	!	!	!	!	!	!	!	!	!	!	!LO:TX:t=[quarter]=120	!
.	.	.	.	.	.	.	.	.	.	32qqx/JJJ	.	.	.	.	.	.	.	.	.	.	.	.	.	.	.	.	.	.	.	.	.	.	.	.	.	.	.	.	.
*	*	*	*	*	*	*	*	*	*	*	*	*	*	*	*	*	*	*	*	*	*	*^	*	*^	*	*	*	*	*	*	*	*	*	*	*	*	*	*	*
8r	.	16B-XLL 16e-X	f	16ee-XLL 16ggn	f	16cc#XLL 16ccc#X	f	(>16ff#XLL 16fff#X	f	8x	.	2r	.	8r	.	8r	.	2r	.	2r	.	16e-XLL	4r	f	16e-XLL	4r	f	8r	.	8r	.	8r	.	8r	.	8r	8r	.	8r	8fff#X'	f
!	!	!	!	!	!	!	!	!LO:TX:t=(senza string.)	!	!	!	!	!	!	!	!	!	!	!	!	!	!	!	!	!	!	!	!	!	!	!	!	!	!	!	!	!	!	!	!	!
.	.	16B- 16e-	.	16ee- 16ggn	.	16cc# 16ccc#	.	16ee 16eee)	.	.	.	.	.	.	.	.	.	.	.	.	.	16e-	.	.	16e-	.	.	.	.	.	.	.	.	.	.	.	.	.	.	.	.
.	.	.	.	.	.	.	.	.	.	.	.	.	.	.	.	.	.	.	.	.	.	.	.	.	.	.	.	.	.	.	.	.	.	(>8qdd-X/	f	.	.	.	.	.	.
4BB-X	f	16B- 16e-	.	16ee- 16ggn	.	16cc# 16ccc#	.	16ee' 16eee	.	8r	.	.	.	4BB-X	<	4E-X 4G	<	.	.	.	.	16e-	.	.	16e-	.	.	(>4BB-X	f	(>4BB-X	f	(>4B-X 4e-X	f	8ddd-X')	.	16ee-'LL 16gg-X	8ccc#X'	f	(>4ee-X 4gg	8r	.
.	.	16B-JJ 16e-	.	16ee-JJ 16ggn	.	16cc#JJ 16ccc#	.	16ee'JJ 16eee	.	.	.	.	.	.	.	.	.	.	.	.	.	16e-JJ	.	.	16e-JJ	.	.	.	.	.	.	.	.	.	.	16ee-'JJ 16gg-	.	.	.	.	.
.	.	16A-XLL 16d-X	.	16ddLL 16ff	.	(>20cc#LL 20ccc#	.	(>20eeLL 20eee	.	4r	.	.	.	.	.	.	.	.	.	.	.	8e-	(<16e-LL	f	8e-	(<16e-LL	f	.	.	.	.	.	.	8r	.	8r	(>16ccc#KL	.	.	20fff#LL	.
.	.	.	.	.	.	20dd#X 20ddd#X)	.	20ff# 20fff#)	.	.	.	.	.	.	.	.	.	.	.	.	.	.	.	.	.	.	.	.	.	.	.	.	.	.	.	.	.	.	.	20fff#	.
.	.	16A- 16d-	.	16dd 16ff	.	.	.	.	.	.	.	.	.	.	.	.	.	.	.	.	.	.	16d-X)	.	.	16d-X)	.	.	.	.	.	.	.	.	.	.	8.ddd#XJ)	.	.	.	.
.	.	.	.	.	.	20dd# 20ddd#	.	20ff# 20fff#	.	.	.	.	.	.	.	.	.	.	.	.	.	.	.	.	.	.	.	.	.	.	.	.	.	.	.	.	.	.	.	20fff#	.
.	.	.	.	.	.	.	.	.	.	.	.	.	.	.	.	.	.	.	.	.	.	.	.	.	.	.	.	.	.	.	.	.	.	(>8qee-/	.	.	.	.	.	.	.
[8B-X	.	16A- 16d-	.	16dd 16ff	.	.	.	.	.	.	.	.	.	[8B-X	f	[8e-X [8g	f	.	.	.	.	8r	16d-'	.	8r	16d-'	.	[8B-X	.	[8B-X	.	[8A-X [8d-X	.	8eee-')	.	16dd-X'LL 16ff	.	.	[8dd [8ff	.	.
.	.	.	.	.	.	20dd# 20ddd#	.	20ff# 20fff#	.	.	.	.	.	.	.	.	.	.	.	.	.	.	.	.	.	.	.	.	.	.	.	.	.	.	.	.	.	.	.	20fff#	.
.	.	16A-JJ 16d-	.	16ddJJ 16ff	.	.	.	.	.	.	.	.	.	.	.	.	.	.	.	.	.	.	16e-'JJ	.	.	16e-'JJ	.	.	.	.	.	.	.	.	.	16dd-'JJ 16ff	.	.	.	.	.
.	.	.	.	.	.	20dd#JJ 20ddd#	.	20ff#JJ 20fff#	.	.	.	.	.	.	.	.	.	.	.	.	.	.	.	.	.	.	.	.	.	.	.	.	.	.	.	.	.	.	.	20fff#JJ	.
=83	=83	=83	=83	=83	=83	=83	=83	=83	=83	=83	=83	=83	=83	=83	=83	=83	=83	=83	=83	=83	=83	=83	=83	=83	=83	=83	=83	=83	=83	=83	=83	=83	=83	=83	=83	=83	=83	=83	=83	=83	=83
*	*	*	*	*	*	*	*	*	*	*	*	*	*	*	*	*	*	*	*	*^	*	*	*	*	*	*	*	*	*	*	*	*	*	*	*	*	*	*	*	*	*
8B-]	.	16B-XLL 16e-X	.	16ee-XLL 16gg	.	16cc#XLL 16ccc#X	.	(>16ff#XLL 16fff#X	.	2r	.	2r	.	8B-]	.	8e-] 8g]	.	2r	.	2r	8r	f	16e-X'LL	8e-'	.	16e-X'LL	8e-'	.	8B-])	.	8B-])	.	8A-] 8d-])	.	8r	.	8r	8r	.	8dd] 8ff])	8fff#X'	.
.	.	16B- 16e-	.	16ee- 16gg	.	16cc# 16ccc#	.	16ee 16eee)	.	.	.	.	.	.	.	.	.	.	.	.	.	.	16e-'	.	.	16e-'	.	.	.	.	.	.	.	.	.	.	.	.	.	.	.	.
.	.	.	.	.	.	.	.	.	.	.	.	.	.	.	.	.	.	.	.	.	.	.	.	.	.	.	.	.	.	.	.	.	.	.	(>8qdd-X/	.	.	.	.	.	.	.
8r	.	16B- 16e-	.	16ee- 16gg	.	16cc# 16ccc#	.	16ee' 16eee	.	.	.	.	.	8r	.	8r	.	.	.	.	16aLL	.	(>16f-X	8r	.	(>16f-X	8r	.	8r	.	8r	.	(>4B-X 4e-X	.	8ddd-X')	.	16ee-'LL 16gg	8ccc#X'	.	(>4ee-X 4gg	8r	.
.	.	16B-JJ 16e-	.	16ee-JJ 16gg	.	16cc#JJ 16ccc#	.	16ee'JJ 16eee	.	.	.	.	.	.	.	.	.	.	.	.	16aJJ	.	16e-JJ)	.	.	16e-JJ)	.	.	.	.	.	.	.	.	.	.	16ee-'JJ 16gg	.	.	.	.	.
4r	.	16A-XLL 16d-X	.	16dd-XLL 16ff	.	(>20cc#LL 20ccc#	.	(>20eeLL 20eee	.	.	.	.	.	4r	.	4r	.	.	.	.	16b-XLL	.	8e-	(<16e-LL	.	8e-	(<16e-LL	.	4r	.	4r	.	.	.	8r	.	8r	(>16ccc#KL	.	.	20fff#LL	.
.	.	.	.	.	.	20dd#X 20ddd#X)	.	20ff# 20fff#)	.	.	.	.	.	.	.	.	.	.	.	.	.	.	.	.	.	.	.	.	.	.	.	.	.	.	.	.	.	.	.	.	20fff#	.
.	.	16A- 16d-	.	16dd- 16ff	.	.	.	.	.	.	.	.	.	.	.	.	.	.	.	.	16b-	.	.	16d-X)	.	.	16d-X)	.	.	.	.	.	.	.	.	.	.	8.ddd#XJ)	.	.	.	.
.	.	.	.	.	.	20dd# 20ddd#	.	20ff# 20fff#	.	.	.	.	.	.	.	.	.	.	.	.	.	.	.	.	.	.	.	.	.	.	.	.	.	.	.	.	.	.	.	.	20fff#	.
.	.	.	.	.	.	.	.	.	.	.	.	.	.	.	.	.	.	.	.	.	.	.	.	.	.	.	.	.	.	.	.	.	.	.	(>8qee-/	.	.	.	.	.	.	.
.	.	16A- 16d-	.	16dd- 16ff	.	.	.	.	.	.	.	.	.	.	.	.	.	.	.	.	16cc	.	8r	16d-'	.	8r	16d-'	.	.	.	.	.	[8A-X [8d-X	.	8eee-')	.	16dd-X'LL 16ff	.	.	[8dd-X [8ff	.	.
.	.	.	.	.	.	20dd# 20ddd#	.	20ff# 20fff#	.	.	.	.	.	.	.	.	.	.	.	.	.	.	.	.	.	.	.	.	.	.	.	.	.	.	.	.	.	.	.	.	20fff#	.
.	.	16A-JJ 16d-	.	16dd-JJ 16ff	.	.	.	.	.	.	.	.	.	.	.	.	.	.	.	.	16ccJJ	.	.	16e-'JJ	.	.	16e-'JJ	.	.	.	.	.	.	.	.	.	16dd-'JJ 16ff	.	.	.	.	.
.	.	.	.	.	.	20dd#JJ 20ddd#	.	20ff#JJ 20fff#	.	.	.	.	.	.	.	.	.	.	.	.	.	.	.	.	.	.	.	.	.	.	.	.	.	.	.	.	.	.	.	.	20fff#JJ	.
=84	=84	=84	=84	=84	=84	=84	=84	=84	=84	=84	=84	=84	=84	=84	=84	=84	=84	=84	=84	=84	=84	=84	=84	=84	=84	=84	=84	=84	=84	=84	=84	=84	=84	=84	=84	=84	=84	=84	=84	=84	=84	=84
!!pagebreak:original
2r	.	16B-XLL 16e-X	.	16ee-XLL 16gg	.	16cc#XLL 16ccc#X	.	(>16ff#XLL 16fff#X	.	2r	.	2r	.	2r	.	2r	.	8r	.	8r	8cc#X	.	16e-X'LL	8e-'	.	16e-X'LL	8e-'	.	2r	.	2r	.	8A-] 8d-])	.	8r	.	8r	8r	.	8dd-] 8ff])	8fff#X'	.
.	.	16B- 16e-	.	16ee- 16gg	.	16cc# 16ccc#	.	16ee 16eee)	.	.	.	.	.	.	.	.	.	.	.	.	.	.	16e-'	.	.	16e-'	.	.	.	.	.	.	.	.	.	.	.	.	.	.	.	.
.	.	.	.	.	.	.	.	.	.	.	.	.	.	.	.	.	.	.	.	.	.	.	.	.	.	.	.	.	.	.	.	.	.	.	(>8qdd-X/	.	.	.	.	.	.	.
.	.	16B- 16e-	.	16ee- 16gg	.	16cc# 16ccc#	.	16ee 16eee	.	.	.	.	.	.	.	.	.	16cc#XLL	f	16eeLL	8r	f	(>16f	8r	.	(>16f	8r	.	.	.	.	.	(>4B-X 4e-X	.	8ddd-X')	.	16ee-'LL 16gg	8ccc#X'	.	(>4ee-X 4gg	8r	.
.	.	16B-JJ 16e-	.	16ee-JJ 16gg	.	16cc#JJ 16ccc#	.	16eeJJ 16eee	.	.	.	.	.	.	.	.	.	16cc#JJ	.	16dd#XJJ	.	.	16e-JJ)	.	.	16e-JJ)	.	.	.	.	.	.	.	.	.	.	16ee-'JJ 16gg	.	.	.	.	.
.	.	16A-XLL 16d-X	.	16dd-XLL 16ff	.	(>20cc#LL 20ccc#	.	(>20eeLL 20eee	.	.	.	.	.	.	.	.	.	16cc#LL	.	16dd#LL	4r	.	8e-	(<16e-LL	.	8e-	(<16e-LL	.	.	.	.	.	.	.	8r	.	8r	(>16ccc#KL	.	.	20fff#LL	.
.	.	.	.	.	.	20dd#X 20ddd#X)	.	20ff# 20fff#)	.	.	.	.	.	.	.	.	.	.	.	.	.	.	.	.	.	.	.	.	.	.	.	.	.	.	.	.	.	.	.	.	20fff#	.
.	.	16A- 16d-	.	16dd- 16ff	.	.	.	.	.	.	.	.	.	.	.	.	.	16b	.	16cc#X	.	.	.	16d-X)	.	.	16d-X)	.	.	.	.	.	.	.	.	.	.	8.ddd#XJ)	.	.	.	.
.	.	.	.	.	.	20dd# 20ddd#	.	20ff# 20fff#	.	.	.	.	.	.	.	.	.	.	.	.	.	.	.	.	.	.	.	.	.	.	.	.	.	.	.	.	.	.	.	.	20fff#	.
.	.	.	.	.	.	.	.	.	.	.	.	.	.	.	.	.	.	.	.	.	.	.	.	.	.	.	.	.	.	.	.	.	.	.	(>8qee-/	.	.	.	.	.	.	.
.	.	16A- 16d-	.	16dd- 16ff	.	.	.	.	.	.	.	.	.	.	.	.	.	16b	.	16cc#	.	.	8r	16d-'	.	8r	16d-'	.	.	.	.	.	8A-X' 8d-X)	.	8eee-')	.	16dd-X'LL 16ff	.	.	8dd-X' 8ff)	.	.
.	.	.	.	.	.	20dd# 20ddd#	.	20ff# 20fff#	.	.	.	.	.	.	.	.	.	.	.	.	.	.	.	.	.	.	.	.	.	.	.	.	.	.	.	.	.	.	.	.	20fff#	.
.	.	16A-JJ 16d-	.	16dd-JJ 16ff	.	.	.	.	.	.	.	.	.	.	.	.	.	16bJJ	.	16dd#JJ	.	.	.	16e-'JJ	.	.	16e-'JJ	.	.	.	.	.	.	.	.	.	16dd-'JJ 16ff	.	.	.	.	.
.	.	.	.	.	.	20dd#JJ 20ddd#	.	20ff#JJ 20fff#	.	.	.	.	.	.	.	.	.	.	.	.	.	.	.	.	.	.	.	.	.	.	.	.	.	.	.	.	.	.	.	.	20fff#JJ	.
=85	=85	=85	=85	=85	=85	=85	=85	=85	=85	=85	=85	=85	=85	=85	=85	=85	=85	=85	=85	=85	=85	=85	=85	=85	=85	=85	=85	=85	=85	=85	=85	=85	=85	=85	=85	=85	=85	=85	=85	=85	=85	=85
4BBn	.	16BnLL 16en	.	16eenLL 16gg	.	16cc#XLL 16ccc#X	.	(>16ff#XLL 16fff#X	.	2r	.	2r	.	4BBn	<	4En 4G	<	8b'	.	8ee	8r	.	16e'LL	8e	.	16g'LL	8e	.	8r	.	8r	.	8r	.	8r	.	8r	8r	.	8r	8fff#X'	.
.	.	16B 16e	.	16ee 16gg	.	16cc# 16ccc#	.	16ee 16eee)	.	.	.	.	.	.	.	.	.	.	.	.	.	.	16e'	.	.	16g'	.	.	.	.	.	.	.	.	.	.	.	.	.	.	.	.
.	.	.	.	.	.	.	.	.	.	.	.	.	.	.	.	.	.	.	.	.	.	.	.	.	.	.	.	.	.	.	.	.	.	.	(>8qdd-X/	.	.	.	.	.	.	.
.	.	16B 16e	.	16ee 16gg	.	16cc# 16ccc#	.	16ee 16eee	.	.	.	.	.	.	.	.	.	8r	.	8r	16aLL	.	16e'	8r	.	16g'	8r	.	(>4BBn	.	(>4BBn	.	(>4Bn 4en	.	8ddd-X')	.	16eeX'LL 16gg	8ccc#X'	.	(>4een 4gg	8r	.
.	.	16BJJ 16e	.	16eeJJ 16gg	.	16cc#JJ 16ccc#	.	16eeJJ 16eee	.	.	.	.	.	.	.	.	.	.	.	.	16aJJ	.	16e'JJ	.	.	16g'JJ	.	.	.	.	.	.	.	.	.	.	16ee'JJ 16gg	.	.	.	.	.
[4Bn	.	16A#XLL 16d#X	.	16dd#XLL 16ff#X	.	(>20cc#LL 20ccc#	.	(>20eeLL 20eee	.	.	.	.	.	[4Bn	f	[4e [4g	f	4r	.	4r	16b-XLL	.	8f	(<16f#XLL	.	8a'	(<16aLL	.	.	.	.	.	.	.	8r	.	8r	(>16ccc#KL	.	.	20fff#LL	.
.	.	.	.	.	.	20dd#X 20ddd#X)	.	20ff# 20fff#)	.	.	.	.	.	.	.	.	.	.	.	.	.	.	.	.	.	.	.	.	.	.	.	.	.	.	.	.	.	.	.	.	20fff#	.
.	.	16A# 16d#	.	16dd# 16ff#	.	.	.	.	.	.	.	.	.	.	.	.	.	.	.	.	16b-	.	.	16e)	.	.	16g)	.	.	.	.	.	.	.	.	.	.	8.ddd#XJ)	.	.	.	.
.	.	.	.	.	.	20dd# 20ddd#	.	20ff# 20fff#	.	.	.	.	.	.	.	.	.	.	.	.	.	.	.	.	.	.	.	.	.	.	.	.	.	.	.	.	.	.	.	.	20fff#	.
.	.	.	.	.	.	.	.	.	.	.	.	.	.	.	.	.	.	.	.	.	.	.	.	.	.	.	.	.	.	.	.	.	.	.	(>8qee-/	.	.	.	.	.	.	.
.	.	16A# 16d#	.	16dd# 16ff#	.	.	.	.	.	.	.	.	.	.	.	.	.	.	.	.	16cc	.	8r	16e'	.	8r	16g'	.	[8Bn	.	[8Bn	.	[8A#X [8d#X	.	8eee-')	.	16ee-'LL 16gg-X	.	.	[8dd#X [8ff#X	.	.
.	.	.	.	.	.	20dd# 20ddd#	.	20ff# 20fff#	.	.	.	.	.	.	.	.	.	.	.	.	.	.	.	.	.	.	.	.	.	.	.	.	.	.	.	.	.	.	.	.	20fff#	.
.	.	16A#JJ 16d#	.	16dd#JJ 16ff#	.	.	.	.	.	.	.	.	.	.	.	.	.	.	.	.	16ddJJ	.	.	16e'JJ	.	.	16g'JJ	.	.	.	.	.	.	.	.	.	16ee-'JJ 16gg-	.	.	.	.	.
.	.	.	.	.	.	20dd#JJ 20ddd#	.	20ff#JJ 20fff#	.	.	.	.	.	.	.	.	.	.	.	.	.	.	.	.	.	.	.	.	.	.	.	.	.	.	.	.	.	.	.	.	20fff#JJ	.
=86	=86	=86	=86	=86	=86	=86	=86	=86	=86	=86	=86	=86	=86	=86	=86	=86	=86	=86	=86	=86	=86	=86	=86	=86	=86	=86	=86	=86	=86	=86	=86	=86	=86	=86	=86	=86	=86	=86	=86	=86	=86	=86
8B]	.	16BLL 16e	.	16eenLL 16gg	.	16cc#XLL 16ccc#X	.	(>16ff#XLL 16fff#X	.	4r	.	2r	.	8B]	.	8e] 8g]	.	8r	.	8r	8ee	.	16e'LL	8e	.	16g'LL	8g	.	8B])	.	8B])	.	8A#] 8d#])	.	8r	.	8r	8r	.	8dd#] 8ff#])	8fff#X'	.
.	.	16B 16e	.	16ee 16gg	.	16cc# 16ccc#	.	16ee 16eee)	.	.	.	.	.	.	.	.	.	.	.	.	.	.	16e'	.	.	16g'	.	.	.	.	.	.	.	.	.	.	.	.	.	.	.	.
.	.	.	.	.	.	.	.	.	.	.	.	.	.	.	.	.	.	.	.	.	.	.	.	.	.	.	.	.	.	.	.	.	.	.	(>8qdd-X/	.	.	.	.	.	.	.
8r	.	16B 16e	.	16ee 16gg	.	16cc# 16ccc#	.	16ee 16eee	.	.	.	.	.	8r	.	8r	.	16cc#XLL	.	16ff#XLL	8r	.	16e'	8r	.	16g'	8r	.	8r	.	8r	.	(>4B 4e	.	8ddd-X')	.	16eeX'LL 16gg	8ccc#X'	.	(>4ee 4gg	8r	.
.	.	16BJJ 16e	.	16eeJJ 16gg	.	16cc#JJ 16ccc#	.	16eeJJ 16eee	.	.	.	.	.	.	.	.	.	16cc#JJ	.	16eeJJ	.	.	16e'JJ	.	.	16g'JJ	.	.	.	.	.	.	.	.	.	.	16ee'JJ 16gg	.	.	.	.	.
4r	.	16A#XLL 16d#X	.	16dd#XLL 16ff#X	.	(>20cc#LL 20ccc#	.	(>20eeLL 20eee	.	20xLL	f	.	.	4r	.	4r	.	16cc#LL	.	16dd#XLL	4r	.	8f	(<16f#XLL	.	8a	(<16aLL	.	4r	.	4r	.	.	.	8r	.	8r	(>16ccc#KL	.	.	20fff#LL	.
.	.	.	.	.	.	20dd#X 20ddd#X)	.	20ff# 20fff#)	.	20x	.	.	.	.	.	.	.	.	.	.	.	.	.	.	.	.	.	.	.	.	.	.	.	.	.	.	.	.	.	.	20fff#	.
.	.	16A# 16d#	.	16dd# 16ff#	.	.	.	.	.	.	.	.	.	.	.	.	.	16b	.	16cc#X	.	.	.	16e)	.	.	16g)	.	.	.	.	.	.	.	.	.	.	8.ddd#XJ)	.	.	.	.
.	.	.	.	.	.	20dd# 20ddd#	.	20ff# 20fff#	.	20x	.	.	.	.	.	.	.	.	.	.	.	.	.	.	.	.	.	.	.	.	.	.	.	.	.	.	.	.	.	.	20fff#	.
.	.	.	.	.	.	.	.	.	.	.	.	.	.	.	.	.	.	.	.	.	.	.	.	.	.	.	.	.	.	.	.	.	.	.	(>8qee-/	.	.	.	.	.	.	.
.	.	16A# 16d#	.	16dd# 16ff#	.	.	.	.	.	.	.	.	.	.	.	.	.	16b	.	16dd#	.	.	8r	16e'	.	8r	16g'	.	.	.	.	.	8A#X' 8d#X)	.	8eee-')	.	16ee-'LL 16gg-X	.	.	8dd#X' 8ff#X)	.	.
.	.	.	.	.	.	20dd# 20ddd#	.	20ff# 20fff#	.	20x	.	.	.	.	.	.	.	.	.	.	.	.	.	.	.	.	.	.	.	.	.	.	.	.	.	.	.	.	.	.	20fff#	.
.	.	16A#JJ 16d#	.	16dd#JJ 16ff#	.	.	.	.	.	.	.	.	.	.	.	.	.	16bJJ	.	16eeJJ	.	.	.	16e'JJ	.	.	16g'JJ	.	.	.	.	.	.	.	.	.	16ee-'JJ 16gg-	.	.	.	.	.
.	.	.	.	.	.	20dd#JJ 20ddd#	.	20ff#JJ 20fff#	.	20xJJ	.	.	.	.	.	.	.	.	.	.	.	.	.	.	.	.	.	.	.	.	.	.	.	.	.	.	.	.	.	.	20fff#JJ	.
*	*	*clefG2	*	*	*	*	*	*	*	*	*	*	*	*	*	*	*	*	*	*	*	*	*	*	*	*	*	*	*	*	*	*	*	*	*	*	*	*	*	*	*	*
=87	=87	=87	=87	=87	=87	=87	=87	=87	=87	=87	=87	=87	=87	=87	=87	=87	=87	=87	=87	=87	=87	=87	=87	=87	=87	=87	=87	=87	=87	=87	=87	=87	=87	=87	=87	=87	=87	=87	=87	=87	=87	=87
4r	.	16dnLL 16g	.	16ggLL 16bb-X	.	16cc#XLL 16ccc#X	.	16ff#XLL 16fff#X	.	2r	.	16g-XLL	f	4r	.	4r	.	8cc#X'	.	8ff#X	8r	.	(>16gLL	8e	.	(>16b-LL	8g	.	4r	.	4r	.	8r	.	8r	.	8r	8r	.	8r	8fff#X'	.
.	.	16d 16g	.	16gg 16bb-	.	16cc# 16ccc#	.	16ff# 16fff#	.	.	.	16g-JJ	.	.	.	.	.	.	.	.	.	.	16f#X)	.	.	16a)	.	.	.	.	.	.	.	.	.	.	.	.	.	.	.	.
*	*	*	*	*	*	*	*	*	*	*	*	*	*	*	*	*	*	*	*	*	*	*	*	*	*	*	*	*	*	*	*	*	*	*	*	*	*^	*	*	*	*	*
.	.	16d 16g	.	16gg 16bb-	.	16cc# 16ccc#	.	16ff# 16fff#	.	.	.	8r	.	.	.	.	.	8r	.	8r	16a#XLL	.	16f#'	8r	.	16a'	8r	.	.	.	.	.	(>4G 4g	.	(>4b-	.	[4.gg	(<4dd	(>4ccc#X	.	(>4gg 4bb-X	8r	.
.	.	16dJJ 16g	.	16ggJJ 16bb-	.	16cc#JJ 16ccc#	.	16ff#JJ 16fff#	.	.	.	.	.	.	.	.	.	.	.	.	16a#JJ	.	16f#'JJ	.	.	16a'JJ	.	.	.	.	.	.	.	.	.	.	.	.	.	.	.	.	.
8r	.	(<20dLL 20g	.	(>20ggLL 20bb-	.	(>20cc#LL 20ccc#	.	(>20ff#LL 20fff#	.	.	.	4r	.	8r	.	8r	.	8r	.	4r	16bLL	.	8e	16BLL	.	8g	16eLL	.	8r	.	8r	.	.	.	.	.	.	.	.	.	.	20eeeLL	.
.	.	20B 20e)	.	20ee 20gg)	.	20b 20bb)	.	20ee 20eee)	.	.	.	.	.	.	.	.	.	.	.	.	.	.	.	.	.	.	.	.	.	.	.	.	.	.	.	.	.	.	.	.	.	20eee	.
.	.	.	.	.	.	.	.	.	.	.	.	.	.	.	.	.	.	.	.	.	16b	.	.	16B	.	.	16e	.	.	.	.	.	.	.	.	.	.	.	.	.	.	.	.
.	.	20B 20e	.	20ee 20gg	.	20b 20bb	.	20ee 20eee	.	.	.	.	.	.	.	.	.	.	.	.	.	.	.	.	.	.	.	.	.	.	.	.	.	.	.	.	.	.	.	.	.	20eee	.
[8E	.	.	.	.	.	.	.	.	.	.	.	.	.	[8G	f	[8B [8e	f	16cc#LL	.	.	16cc#X	.	8r	16B	.	8r	16e	.	(>[8E	.	(>[8E	.	[8B [8e	.	[8bX	.	.	[8eeX	[8bb	.	[8ee [8gg	.	.
.	.	20B 20e	.	20ee 20gg	.	20b 20bb	.	20ee 20eee	.	.	.	.	.	.	.	.	.	.	.	.	.	.	.	.	.	.	.	.	.	.	.	.	.	.	.	.	.	.	.	.	.	20eee	.
.	.	.	.	.	.	.	.	.	.	.	.	.	.	.	.	.	.	16cc#JJ	.	.	16cc#JJ	.	.	16BJJ	.	.	16eJJ	.	.	.	.	.	.	.	.	.	.	.	.	.	.	.	.
.	.	20BJJ 20e	.	20eeJJ 20gg	.	20bJJ 20bb	.	20eeJJ 20eee	.	.	.	.	.	.	.	.	.	.	.	.	.	.	.	.	.	.	.	.	.	.	.	.	.	.	.	.	.	.	.	.	.	20eeeJJ	.
=88	=88	=88	=88	=88	=88	=88	=88	=88	=88	=88	=88	=88	=88	=88	=88	=88	=88	=88	=88	=88	=88	=88	=88	=88	=88	=88	=88	=88	=88	=88	=88	=88	=88	=88	=88	=88	=88	=88	=88	=88	=88	=88	=88
8E]	.	16dLL 16g	.	16ggLL 16bb-X	.	16cc#XLL 16ccc#X	.	16ff#XLL 16fff#X	.	4r	.	2r	.	8G]	.	8B] 8e]	.	16cc#XLL	.	2r	16cc#XLL	.	(>16gLL	8G'	.	(>16b-LL	8e'	.	8E]	.	8E]	.	8B] 8e])	.	8b])	.	8gg]	8ee])	8bb])	.	8ee] 8gg])	8eee'	.
.	.	16d 16g	.	16gg 16bb-	.	16cc# 16ccc#	.	16ff# 16fff#	.	.	.	.	.	.	.	.	.	16cc#	.	.	16cc#	.	16f#X)	.	.	16a)	.	.	.	.	.	.	.	.	.	.	.	.	.	.	.	.	.
*	*	*	*	*	*	*	*	*	*	*	*	*	*	*	*	*clefC4	*	*	*	*	*	*	*	*	*	*	*	*	*	*	*	*	*	*	*	*	*	*	*	*	*	*	*
4e	.	16d 16g	.	16gg 16bb-	.	16cc# 16ccc#	.	16ff# 16fff#	.	.	.	.	.	4E	.	4g 4b	.	16cc#	.	.	16dd#X	.	16f#'	8r	.	16a'	8r	.	4e)	.	4e)	.	4e 4g	.	4b-	.	[4.gg	4dd	4ccc#X	.	(>4gg 4bb-X	8r	.
.	.	16dJJ 16g	.	16ggJJ 16bb-	.	16cc#JJ 16ccc#	.	16ff#JJ 16fff#	.	.	.	.	.	.	.	.	.	16cc#JJ	.	.	16dd#JJ	.	16f#'JJ	.	.	16a'JJ	.	.	.	.	.	.	.	.	.	.	.	.	.	.	.	.	.
.	.	(<20dLL 20g	.	(>20ggLL 20bb-	.	(>20cc#LL 20ccc#	.	(>20ff#LL 20fff#	.	20xLL	f	.	.	.	.	.	.	16cc#LL	.	.	16eeLL	.	8e'	16BLL	.	8g'	16eLL	.	.	.	.	.	.	.	.	.	.	.	.	.	.	20eeeLL	.
.	.	20B 20e)	.	20ee 20gg)	.	20b 20bb)	.	20ee 20eee)	.	20x	.	.	.	.	.	.	.	.	.	.	.	.	.	.	.	.	.	.	.	.	.	.	.	.	.	.	.	.	.	.	.	20eee	.
.	.	.	.	.	.	.	.	.	.	.	.	.	.	.	.	.	.	16cc#JJ	.	.	16eeJJ	.	.	16B	.	.	16e	.	.	.	.	.	.	.	.	.	.	.	.	.	.	.	.
.	.	20B 20e	.	20ee 20gg	.	20b 20bb	.	20ee 20eee	.	20x	.	.	.	.	.	.	.	.	.	.	.	.	.	.	.	.	.	.	.	.	.	.	.	.	.	.	.	.	.	.	.	20eee	.
8r	.	.	.	.	.	.	.	.	.	.	.	.	.	8r	.	8r	.	8r	.	.	8r	.	8r	16B	.	8r	16e	.	8r	.	8r	.	8r	.	[8bX	.	.	[8ee	[8bb	.	8ee' 8gg)	.	.
.	.	20B 20e	.	20ee 20gg	.	20b 20bb	.	20ee 20eee	.	20x	.	.	.	.	.	.	.	.	.	.	.	.	.	.	.	.	.	.	.	.	.	.	.	.	.	.	.	.	.	.	.	20eee	.
.	.	.	.	.	.	.	.	.	.	.	.	.	.	.	.	.	.	.	.	.	.	.	.	16BJJ	.	.	16eJJ	.	.	.	.	.	.	.	.	.	.	.	.	.	.	.	.
.	.	20BJJ 20e	.	20eeJJ 20gg	.	20bJJ 20bb	.	20eeJJ 20eee	.	20xJJ	.	.	.	.	.	.	.	.	.	.	.	.	.	.	.	.	.	.	.	.	.	.	.	.	.	.	.	.	.	.	.	20eeeJJ	.
*	*	*	*	*	*	*	*	*	*	*	*	*	*	*	*	*	*	*	*	*v	*v	*	*	*	*	*v	*v	*	*	*	*	*	*	*	*	*	*v	*v	*	*	*	*	*
*	*	*	*	*	*	*	*	*	*	*	*	*	*	*	*	*	*	*	*	*	*	*v	*v	*	*	*	*	*	*	*	*	*	*	*	*	*	*	*	*	*
*	*	*clefF4	*	*	*	*	*	*	*	*	*	*	*	*	*	*clefF4	*	*	*	*	*	*	*	*	*	*	*	*	*	*	*	*	*	*	*	*	*	*	*
==	==	==	==	==	==	==	==	==	==	==	==	==	==	==	==	==	==	==	==	==	==	==	==	==	==	==	==	==	==	==	==	==	==	==	==	==	==	==	==
*-	*-	*-	*-	*-	*-	*-	*-	*-	*-	*-	*-	*-	*-	*-	*-	*-	*-	*-	*-	*-	*-	*-	*-	*-	*-	*-	*-	*-	*-	*-	*-	*-	*-	*-	*-	*-	*-	*-	*-
!!!CDT: 1890/12/08-1959/08/28
!!!CBL: Polička, Bohemia
!!!CDL: Liestal, Switzerland
!!!CNT: Czech
!!!AGN: Orchestral; Symphonic
!!!MCN: Münch, Charles
!!!MDT: 1959/02/13
!!!MGN: Boston Symphony Orchestra
!!!MLC: Boston, Massachusetts, United States of America
!!!MPD: 1959
!!!MPN:
!!!ODT: 1958
!!!PDT: 1959
!!!excerpt-start-measure: 78
!!!excerpt-end-measure: 84
!!!excerpt-start-time: 2:43
!!!excerpt-end-time: 2:58
!!!EEV: 2020/01/17
!!!system-decoration: [(s1,s2,s3,s4,s5,s6,s7,s8)][(s9,s10,s11,s12,s13,s14)][(s15)]s16[(s17,s18,s19,s20,s21)]
!!!RDF**kern: > = above
!!!RDF**kern: < = below
!!!ONB: Converted from MusicXML on 2020/01/17
